resources/svg/bank.svg

<svg xmlns="http://www.w3.org/2000/svg" viewBox="0 0 15 15" fill="currentColor"><path d="M7.72361 0.0527864C7.58284 -0.0175955 7.41716 -0.0175955 7.27639 0.0527864L1.27639 3.05279L1.72361 3.94721L7.5 1.05902L13.2764 3.94721L13.7236 3.05279L7.72361 0.0527864Z" fill="black"/><path fill-rule="evenodd" clip-rule="evenodd" d="M14 6H15V5H0V6H1V14H0V15H15V14H14V6ZM5 12V8H6V12H5ZM9 12V8H10V12H9Z" fill="black"/></svg>

<svg xmlns="http://www.w3.org/2000/svg" viewBox="0 0 15 15" fill="currentColor"><path d="M7.724.053a.5.5 0 00-.448 0l-6 3 .448.894L7.5 1.06l5.776 2.888.448-.894-6-3z" fill="currentColor"/><path fill-rule="evenodd" clip-rule="evenodd" d="M14 6h1V5H0v1h1v8H0v1h15v-1h-1V6zm-9 6V8h1v4H5zm4 0V8h1v4H9z" fill="currentColor"/></svg>
